contributed-vectors/gosuslugi.svg

<svg width="192" height="192" viewBox="0 0 192 192" fill="none" xmlns="http://www.w3.org/2000/svg">
<path fill-rule="evenodd" clip-rule="evenodd" d="M96 184C144.601 184 184 144.601 184 96C184 47.399 144.601 8 96 8C47.399 8 8 47.399 8 96C8 144.601 47.399 184 96 184Z" fill="white"/>
<path d="M77.61 112.91H73.5552C73.4196 112.91 73.321 112.781 73.358 112.652C74.0359 110.39 74.7425 107.83 75.2314 104.992C75.7326 102.057 75.9955 99.3521 76.1064 96.9373C76.1105 96.8285 76.2009 96.7438 76.3118 96.7438H88.362C88.4756 96.7438 88.5676 96.8341 88.5676 96.9454V112.708C88.5676 112.819 88.4756 112.91 88.362 112.91H84.4137C84.3001 112.91 84.208 112.819 84.208 112.708V100.533H80.2446C80.0988 102.33 79.8532 104.261 79.4505 106.298C78.9821 108.685 78.4275 110.85 77.8031 112.772C77.7784 112.853 77.6963 112.91 77.61 112.91Z" fill="#FF837D"/>
<path d="M110.093 96.9454C110.093 96.8341 110.185 96.7438 110.299 96.7438L121.94 96.7438C122.086 96.7438 122.184 96.8906 122.127 97.0233L120.686 100.41C120.648 100.5 120.561 100.54 120.478 100.532C120.471 100.533 120.464 100.533 120.457 100.533H114.453V112.708C114.453 112.819 114.361 112.91 114.247 112.91H110.299C110.185 112.91 110.093 112.819 110.093 112.708V96.9454Z" fill="#FF837D"/>
<path d="M40.2055 96.7439C40.0628 96.7439 39.9637 96.8815 40.0127 97.0114L46.0116 112.912C45.1651 114.657 44.2246 116.493 43.149 118.54C43.0786 118.674 43.1767 118.836 43.3307 118.836H47.5983C47.6758 118.836 47.7473 118.792 47.7823 118.724C50.9401 112.426 53.2639 106.842 56.441 97.0102C56.4842 96.8802 56.3862 96.7439 56.2464 96.7439H52.2826C52.1906 96.7439 52.1093 96.8053 52.0841 96.8918C50.861 101.095 49.7332 104.385 48.4259 107.556L44.3961 96.8746C44.3665 96.7961 44.2894 96.7439 44.2032 96.7439H40.2055Z" fill="#FF837D"/>
<path d="M91.2395 96.7438C91.0968 96.7438 90.9977 96.8814 91.0467 97.0113L97.0456 112.912C96.1991 114.657 95.2586 116.493 94.183 118.54C94.1125 118.674 94.2106 118.836 94.3647 118.836H98.6323C98.7098 118.836 98.7812 118.792 98.8162 118.724C101.974 112.426 104.298 106.842 107.475 97.0102C107.518 96.8802 107.42 96.7438 107.28 96.7438H103.317C103.225 96.7438 103.143 96.8052 103.118 96.8917C101.895 101.095 100.767 104.385 99.4599 107.556L95.4301 96.8745C95.4004 96.796 95.3234 96.7438 95.2372 96.7438H91.2395Z" fill="#FF837D"/>
<path d="M70.1018 109.095C70.0814 109.043 70.0406 108.999 69.9875 108.975C69.9345 108.952 69.8732 108.952 69.8202 108.967C68.8734 109.31 67.3037 109.589 66.0671 109.589C63.3613 109.589 62.0717 108.876 62.0717 104.825C62.0717 101.586 62.4676 100.061 66.0671 100.061C67.0874 100.061 68.3221 100.204 69.5261 100.547C69.624 100.575 69.7301 100.531 69.775 100.443C70.1553 99.6263 70.7311 98.2355 71.091 97.376C71.1196 97.3202 71.1196 97.2565 71.0951 97.2007C71.0706 97.1449 71.0216 97.1011 70.9604 97.0812C69.3769 96.5873 67.4874 96.3005 65.7855 96.3005C60.1168 96.3005 57.5906 98.9096 57.5906 104.765C57.5906 110.704 60.1168 113.353 65.7855 113.353C67.2058 113.353 70.0054 113.062 71.3563 112.537C71.4624 112.493 71.5195 112.373 71.4787 112.27L70.1018 109.095Z" fill="#FF837D"/>
<path d="M138.469 96.7438H134.523C134.408 96.7438 134.318 96.8323 134.318 96.9449V109.125C133.463 109.359 132.608 109.471 131.646 109.471C129.254 109.471 128.559 108.812 128.469 106.06V96.9449C128.469 96.8323 128.378 96.7438 128.263 96.7438H124.317C124.202 96.7438 124.112 96.8323 124.112 96.9449V96.9691C124.112 96.9691 124.112 106.137 124.116 106.149C124.21 111.326 126.126 113.353 130.857 113.353C133.619 113.353 136.702 112.665 138.531 111.981C138.617 111.953 138.671 111.873 138.671 111.784V96.9449C138.675 96.8323 138.585 96.7438 138.469 96.7438Z" fill="#FF837D"/>
<path d="M83.8221 86.0144C83.8017 85.9624 83.7609 85.9184 83.7079 85.8944C83.6549 85.8704 83.5937 85.8704 83.5407 85.8864C82.5944 86.2304 81.0256 86.5105 79.7897 86.5105C77.0854 86.5105 75.7965 85.7944 75.7965 81.7257C75.7965 78.4732 76.1922 76.9409 79.7897 76.9409C80.8094 76.9409 82.0435 77.085 83.2467 77.429C83.3446 77.457 83.4507 77.413 83.4955 77.325C83.8293 76.6045 84.3139 75.4392 84.6706 74.5814L84.6708 74.581L84.6745 74.5721C84.7225 74.4567 84.7681 74.3468 84.8108 74.2445C84.8393 74.1885 84.8393 74.1245 84.8149 74.0685C84.7904 74.0125 84.7414 73.9685 84.6803 73.9484C83.0977 73.4524 81.2092 73.1643 79.5083 73.1643C73.8428 73.1643 71.3179 75.7847 71.3179 81.6657C71.3179 87.6307 73.8428 90.2911 79.5083 90.2911C80.9277 90.2911 83.7258 89.999 85.0759 89.471C85.182 89.4269 85.2391 89.3069 85.1983 89.2029L83.8221 86.0144Z" fill="#9ABEFF"/>
<path d="M40 73.8121C40 73.7003 40.092 73.6097 40.2055 73.6097L51.8405 73.6097C51.9858 73.6097 52.0841 73.7571 52.0277 73.8904L50.5868 77.292C50.5487 77.3818 50.4617 77.4227 50.3791 77.4146C50.3723 77.4153 50.3655 77.4156 50.3585 77.4156H44.3572V89.6432C44.3572 89.755 44.2651 89.8457 44.1516 89.8457H40.2055C40.092 89.8457 40 89.755 40 89.6432V73.8121Z" fill="#9ABEFF"/>
<path fill-rule="evenodd" clip-rule="evenodd" d="M53.0032 81.665C53.0032 75.5474 55.1599 73.1643 60.6987 73.1643C66.2819 73.1643 68.4588 75.5474 68.4588 81.665C68.4588 87.8756 66.2819 90.2911 60.6987 90.2911C55.1599 90.2911 53.0032 87.8756 53.0032 81.665ZM57.3891 81.7257C57.3891 86.0387 58.1752 86.7265 60.6987 86.7265C63.2706 86.7265 64.0728 86.0387 64.0728 81.7257C64.0728 77.1335 63.1981 76.7248 60.6987 76.7248C58.2478 76.7248 57.3891 77.1335 57.3891 81.7257Z" fill="#9ABEFF"/>
<path fill-rule="evenodd" clip-rule="evenodd" d="M80.0758 36.751C85.8595 33.916 87.8948 33.1167 90.9123 32.4961C92.5623 32.1566 94.3228 32.0065 96.7264 32.0003C102.997 31.9838 105.656 32.7392 114.181 36.9594C127.332 43.4695 142.699 52.9588 146.982 57.2143C150.509 60.718 153.903 66.5322 155.061 71.0543C156.592 77.0351 157.473 96.2993 156.734 107.651C156.106 117.3 155.443 120.86 153.446 125.308C150.9 130.978 147.272 134.932 140.329 139.604C134.303 143.658 128.271 147.408 123.158 150.279C118.204 153.061 108.438 157.83 106.233 158.545C100.825 160.297 94.782 160.473 89.1975 159.04C80.7405 156.87 52.3537 140.338 46.4477 134.143C45.347 132.989 44.3357 131.758 43.4222 130.469C42.7476 129.516 43.4746 128.265 44.6582 128.265H51.0542C51.5039 128.265 51.9289 128.46 52.2298 128.787C52.3689 128.938 52.5088 129.087 52.6492 129.231C58.2156 134.973 83.0749 149.232 90.7662 151.095C93.9768 151.872 99.7237 151.874 102.924 151.099C109.077 149.608 125.423 140.747 137.204 132.515C140.523 130.197 142.301 128.428 144.376 125.38C148.081 119.94 148.973 116.044 149.59 102.606C149.997 93.7642 149.191 78.9578 148.057 74.4382C147.053 70.4369 144.009 65.2771 140.784 62.1066C135.624 57.0354 111.546 43.2994 103.891 41.0605C100.869 40.1765 94.6382 39.9963 91.3635 40.698C88.6224 41.2854 86.6779 42.0984 79.9994 45.4501C70.8458 50.0435 56.609 58.7935 53.3648 61.8197C52.8229 62.3252 52.2858 62.8775 51.7638 63.4628C51.4636 63.7994 51.0327 64 50.5763 64H44.2403C43.0663 64 42.3401 62.7679 42.9987 61.8163C43.3482 61.3113 43.7175 60.807 44.1075 60.301C46.4332 57.2831 48.6973 55.3593 54.079 51.8294C64.2646 45.1479 71.4603 40.9745 80.0758 36.751Z" fill="url(#paint0_linear_1769_109)"/>
<defs>
<linearGradient id="paint0_linear_1769_109" x1="99.8747" y1="70.1596" x2="99.8747" y2="120.038" gradientUnits="userSpaceOnUse">
<stop stop-color="#95BBFF"/>
<stop offset="0.998913" stop-color="#FF837D"/>
</linearGradient>
</defs>
</svg>

<svg xmlns="http://www.w3.org/2000/svg" width="192" height="192" fill="none"><path fill="#fff" fill-rule="evenodd" d="M96 184c48.601 0 88-39.399 88-88S144.601 8 96 8 8 47.399 8 96s39.399 88 88 88Z" clip-rule="evenodd"/><path fill="#FF837D" d="M77.61 112.91h-4.055a.204.204 0 0 1-.197-.258c.678-2.262 1.385-4.822 1.873-7.66.502-2.935.765-5.64.875-8.055a.203.203 0 0 1 .206-.193h12.05c.114 0 .206.09.206.201v15.763a.204.204 0 0 1-.206.202h-3.948a.204.204 0 0 1-.206-.202v-12.175h-3.963a50.886 50.886 0 0 1-.794 5.765c-.469 2.387-1.023 4.552-1.648 6.474a.204.204 0 0 1-.193.138ZM110.093 96.945c0-.11.092-.201.206-.201h11.641a.2.2 0 0 1 .187.28l-1.441 3.386a.2.2 0 0 1-.208.122l-.021.001h-6.004v12.175a.204.204 0 0 1-.206.202h-3.948a.204.204 0 0 1-.206-.202V96.945ZM40.206 96.744a.2.2 0 0 0-.193.267l5.999 15.901a197.128 197.128 0 0 1-2.863 5.628.203.203 0 0 0 .182.296h4.267a.208.208 0 0 0 .184-.112c3.158-6.298 5.482-11.882 8.659-21.714a.204.204 0 0 0-.195-.266h-3.963a.207.207 0 0 0-.199.148c-1.223 4.203-2.35 7.493-3.658 10.664l-4.03-10.681a.205.205 0 0 0-.193-.131h-3.998ZM91.24 96.744a.2.2 0 0 0-.193.267l5.999 15.901a197.128 197.128 0 0 1-2.863 5.628.203.203 0 0 0 .182.296h4.267a.208.208 0 0 0 .184-.112c3.158-6.298 5.482-11.882 8.659-21.714a.204.204 0 0 0-.195-.266h-3.963a.208.208 0 0 0-.199.148c-1.223 4.203-2.351 7.493-3.658 10.664l-4.03-10.681a.205.205 0 0 0-.193-.131H91.24ZM70.102 109.095a.221.221 0 0 0-.115-.12.253.253 0 0 0-.167-.008c-.947.343-2.516.622-3.753.622-2.706 0-3.995-.713-3.995-4.764 0-3.239.396-4.764 3.995-4.764 1.02 0 2.255.143 3.46.486a.214.214 0 0 0 .248-.104c.38-.817.956-2.207 1.316-3.067a.203.203 0 0 0 .004-.175.22.22 0 0 0-.135-.12 18.136 18.136 0 0 0-5.174-.78c-5.67 0-8.195 2.609-8.195 8.464 0 5.939 2.526 8.588 8.194 8.588 1.42 0 4.22-.291 5.571-.816.106-.044.163-.164.123-.267l-1.377-3.175ZM138.469 96.744h-3.946a.201.201 0 0 0-.205.2v12.181a9.886 9.886 0 0 1-2.672.346c-2.392 0-3.087-.659-3.177-3.411v-9.115a.202.202 0 0 0-.206-.201h-3.946a.201.201 0 0 0-.205.2v.025s0 9.168.004 9.18c.094 5.177 2.01 7.204 6.741 7.204 2.762 0 5.845-.688 7.674-1.372a.204.204 0 0 0 .14-.197v-14.84a.195.195 0 0 0-.202-.2Z"/><path fill="#9ABEFF" d="M83.822 86.014a.221.221 0 0 0-.114-.12.241.241 0 0 0-.167-.008c-.947.344-2.515.624-3.751.624-2.705 0-3.994-.716-3.994-4.784 0-3.253.396-4.785 3.994-4.785 1.02 0 2.253.144 3.457.488a.214.214 0 0 0 .249-.104c.333-.72.818-1.886 1.175-2.744l.003-.009.137-.328a.205.205 0 0 0 .004-.175.222.222 0 0 0-.135-.12 18.046 18.046 0 0 0-5.172-.785c-5.665 0-8.19 2.62-8.19 8.502 0 5.965 2.525 8.625 8.19 8.625 1.42 0 4.218-.292 5.568-.82.106-.044.163-.164.122-.268l-1.376-3.189ZM40 73.812c0-.112.092-.202.206-.202H51.84c.146 0 .244.147.188.28l-1.441 3.402a.201.201 0 0 1-.208.123.2.2 0 0 1-.02 0h-6.002v12.228a.204.204 0 0 1-.205.203h-3.947a.204.204 0 0 1-.205-.203v-15.83Z"/><path fill="#9ABEFF" fill-rule="evenodd" d="M53.003 81.665c0-6.118 2.157-8.5 7.696-8.5 5.583 0 7.76 2.382 7.76 8.5 0 6.21-2.177 8.626-7.76 8.626-5.54 0-7.696-2.415-7.696-8.626Zm4.386.06c0 4.314.786 5.002 3.31 5.002 2.572 0 3.374-.688 3.374-5.001 0-4.593-.875-5.001-3.374-5.001-2.451 0-3.31.409-3.31 5Z" clip-rule="evenodd"/><path fill="url(#a)" fill-rule="evenodd" d="M80.076 36.751c5.784-2.835 7.819-3.634 10.836-4.255 1.65-.34 3.41-.49 5.814-.496 6.271-.016 8.93.74 17.455 4.96 13.151 6.51 28.518 15.999 32.801 20.254 3.527 3.504 6.921 9.318 8.079 13.84 1.531 5.981 2.412 25.245 1.673 36.597-.628 9.649-1.291 13.209-3.288 17.657-2.546 5.67-6.174 9.624-13.117 14.296-6.026 4.054-12.058 7.804-17.171 10.675-4.954 2.782-14.72 7.551-16.925 8.266-5.408 1.752-11.451 1.928-17.035.495-8.457-2.17-36.844-18.702-42.75-24.897a32.825 32.825 0 0 1-3.026-3.674c-.674-.953.053-2.204 1.236-2.204h6.396c.45 0 .875.195 1.176.522.139.151.279.3.42.444 5.566 5.742 30.425 20.001 38.116 21.864 3.21.777 8.958.779 12.158.004 6.153-1.491 22.499-10.352 34.28-18.584 3.319-2.318 5.097-4.087 7.172-7.135 3.705-5.44 4.597-9.336 5.214-22.774.407-8.842-.399-23.648-1.533-28.168-1.004-4.001-4.048-9.16-7.273-12.331-5.16-5.072-29.238-18.808-36.893-21.047-3.022-.884-9.253-1.064-12.528-.362-2.74.587-4.685 1.4-11.364 4.752-9.153 4.593-23.39 13.343-26.634 16.37a25.09 25.09 0 0 0-1.601 1.643c-.3.336-.731.537-1.188.537H44.24c-1.174 0-1.9-1.232-1.241-2.184.35-.505.718-1.009 1.108-1.515 2.326-3.018 4.59-4.942 9.972-8.472 10.186-6.681 17.381-10.855 25.997-15.078Z" clip-rule="evenodd"/><defs><linearGradient id="a" x1="99.875" x2="99.875" y1="70.16" y2="120.038" gradientUnits="userSpaceOnUse"><stop stop-color="#95BBFF"/><stop offset=".999" stop-color="#FF837D"/></linearGradient></defs></svg>
